resources/assets/icons/gear.svg

<svg version="1.1" id="gear" xmlns="http://www.w3.org/2000/svg" x="0" y="0" viewBox="0 0 20 20" xml:space="preserve"><g fill="none" stroke="currentColor" stroke-width="2" stroke-linecap="round" stroke-linejoin="round"><path d="M8.8 2.3c.5.8 1.6.7 2.2.1l.9-.9c.6-.6 1.6-.6 2.2-.1.5.4.7 1.3.4 2.3-.2.9.8 1.7 1.5 1.6.1 0 1-.1 1.3-.1 1.1.1 1.5.8 1.6 1.5.1 1-.5 1.6-1.3 2-.8.4-.7 1.7-.1 2.3l.9.9c.5.6.6 1.5.1 2.2-.4.5-1 .6-2.3.4-.9-.2-1.6.6-1.6 1.5 0 .1.1 1.3.1 1.3 0 .9-.6 1.7-1.5 1.7-.5 0-.9-.3-1.2-.6l-.8-.8c-.6-.6-1.6-.7-2.2-.1l-1 1c-.6.6-1.6.6-2.2.1-.3-.3-.8-.8-.4-2.3.2-.9-.6-1.6-1.5-1.6-.1 0-1 .1-1.3.1-.9 0-1.6-.8-1.6-1.7 0-.5.2-.9.5-1.2l.8-.8c.7-.5.8-1.5.1-2.2-.2-.2-.9-.8-.9-.8-.6-.6-.7-1.6-.1-2.2.3-.3.8-.5 1.2-.5l1.1.1c.9 0 1.6-.6 1.6-1.5V2.6c0-.7.7-1.5 1.5-1.6.7 0 1.3.2 2 1.3z"/><path d="M10 13.6c2 0 3.6-1.6 3.6-3.6S12 6.4 10 6.4 6.4 8 6.4 10h0c0 2 1.6 3.6 3.6 3.6z"/></g></svg>

<?xml version="1.0" encoding="utf-8"?>
<svg version="1.1" id="gear" xmlns="http://www.w3.org/2000/svg" xmlns:xlink="http://www.w3.org/1999/xlink" x="0px" y="0px"
	 viewBox="0 0 20 20" enable-background="new 0 0 20 20" xml:space="preserve">
<g>
	<path fill="none" stroke="currentColor" stroke-width="2" stroke-linecap="round" stroke-linejoin="round" d="M8.8,2.3
		C9.3,3.1,10.4,3,11,2.4l0.9-0.9c0.6-0.6,1.6-0.6,2.2-0.1c0.5,0.4,0.7,1.3,0.4,2.3c-0.2,0.9,0.8,1.7,1.5,1.6c0.1,0,1-0.1,1.3-0.1
		c1.1,0.1,1.5,0.8,1.6,1.5c0.1,1-0.5,1.6-1.3,2c-0.8,0.4-0.7,1.7-0.1,2.3l0.9,0.9c0.5,0.6,0.6,1.5,0.1,2.2c-0.4,0.5-1,0.6-2.3,0.4
		c-0.9-0.2-1.6,0.6-1.6,1.5c0,0.1,0.1,1.3,0.1,1.3c0,0.9-0.6,1.7-1.5,1.7c-0.5,0-0.9-0.3-1.2-0.6l-0.8-0.8C10.6,17,9.6,16.9,9,17.5
		l-1,1c-0.6,0.6-1.6,0.6-2.2,0.1c-0.3-0.3-0.8-0.8-0.4-2.3c0.2-0.9-0.6-1.6-1.5-1.6c-0.1,0-1,0.1-1.3,0.1C1.7,14.8,1,14,1,13.1
		c0-0.5,0.2-0.9,0.5-1.2c0,0,0.6-0.6,0.8-0.8C3,10.6,3.1,9.6,2.4,8.9C2.2,8.7,1.5,8.1,1.5,8.1C0.9,7.5,0.8,6.5,1.4,5.9
		c0.3-0.3,0.8-0.5,1.2-0.5l1.1,0.1c0.9,0,1.6-0.6,1.6-1.5c0-0.1,0-1.4,0-1.4C5.3,1.9,6,1.1,6.8,1C7.5,1,8.1,1.2,8.8,2.3z"/>
	<path fill="none" stroke="currentColor" stroke-width="2" stroke-linecap="round" stroke-linejoin="round" d="M10,13.6
		c2,0,3.6-1.6,3.6-3.6S12,6.4,10,6.4S6.4,8,6.4,10l0,0C6.4,12,8,13.6,10,13.6z"/>
</g>
</svg>
